X: 147101
M: C
L: 1/8
K: Ador
|: (gf) |\
e2A2 A2(Bd) | edef gedB |\
e2A2 A2(Bd) | edef gedB |\
ug2 |\
dBde g2(fe) | abag gfed |\
g2d2 edcB | g2d2 d2e2 ||
dBde g2(fe) | abag gfed |\
g2e2 fede | g2e2 e2g2 |\
dBde g2(fe) | abag gfed |\
g2d2 edcB | g2d2 d2(fg) |\
a2fa g2eg | f2df (fe)dB |\


